X:1
T: Havamal
R:Polska
M:3/4
C: Röjås Jonas
L:1/8
K:A dorian 
|: A2 A4 | c2 BG A2 | d2 B2 d2 | c2 A4 |
| A2 A2 AA | c2 BG A2 | d2 B2 d2 | e2 e4:|
|: D2 D2 D2 | E2 G2 A2 | F2 F2 F2 | G2 B2 c2 |B2 B2 Ac | BG A4 :|

